X:114
T:Marriage on the Monocacy
R:waltz
C: 2004, 2010 L.E. McCullough  
M:3/4
L:1/8
K:G
z4 GE|:D3 F GB|AG E2 GE|D3 F GB|d4 Bd|
e3 d Bd|e3 g ed|BA GE GB|A4 GE|D3 F GB|
AG E2 GE|D3 F GB|d4 Bd|c3 d eg|
dB G2 BG|A3 G BA|1 G4 GE:|2 G4 FG|]
|:A3 D AB|cB Ac BA|B3 G dc|B4 AG|
AD FA df|gf eg fd|e3 g fe|dc BA GE|
D3 F GB|AG E2 GE|D3 F GB|d4 Bd|c3 d eg|
dB G2 BG|A3G BA|1 G4 FG:|2 G4 GE|]

